data/playwrite-es.svg

<svg width="95.494" height="27.048" viewBox="0 0 95.494 27.048" xmlns="http://www.w3.org/2000/svg"><path transform="translate(0 19.992) scale(.014 -.014)" d="m187-14q-44 0-44 28v956q0 14 11.5 21t33.5 7h212q109 0 183-25t112-80 38-145q0-84-31-144t-82-98.5-113.5-61-126.5-32.5q-42-6-80-9t-69-3v-386q0-14-11-21t-33-7zm44 493q21 0 45.5 1.5t50.5 4 53 6.5q68 11 128 39.5t97.5 81 37.5 135.5q0 62-27.5 99t-82 54.5-133.5 17.5h-169z"/><path transform="translate(10.878 19.992) scale(.014 -.014)" d="m-57-17q-19 0-28 11.5t-9 26 9 26 28 11.5q31 0 60 14.5t57.5 41.5 54.5 65 49.5 84.5 44 100 37 112 27.5 120.5 17 126 6 127q0 15 13 22.5t30.5 7.5 30.5-7.5 13-22.5q0-62-8-128t-22-132-34-130.5-45-124.5-54.5-113-62-96.5-68-75.5-72-49-74.5-17zm278 0q-26 0-45 7t-30.5 20-17 32.5-5.5 43.5v743q0 96 32.5 143t99.5 47q43 0 71.5-19t42.5-56.5 14-94.5q0-19-13-28t-30.5-9-30.5 9-13 28q0 31-4.5 50.5t-14 29.5-23.5 10q-15 0-25-10t-15-34.5-5-65.5v-733q0-13 4-21.5t11-12.5 16-4 16.5 3 14.5 8.5 14 10.5q8 7 18 2.5t17-12.5q8-10 8.5-20t-4.5-19q-11-15-28-26t-36-16.5-39-5.5z"/><path transform="translate(16.394 19.992) scale(.014 -.014)" d="m258-17q-57 0-101 27.5t-69 83.5-25 141q0 52 9.5 96t28.5 79 46 59 62 37 77 13q32 0 66-10.5t64-27.5v5q0 15 11 22t33 7 32.5-6.5 10.5-20.5v-392q0-13 4-21.5t11-12.5 16-4q10 0 16.5 2.5t13 7.5 15.5 12q7 6 16 3.5t18-10.5q9-10 10-21t-4-19q-11-16-28-27t-36.5-17-39.5-6q-23 0-40 5t-29 15.5-18.5 25.5-9.5 34q0 1-1 4.5t-1 7.5q-23-37-49.5-57t-54.5-27.5-54-7.5zm-107 256q0-55 13-94.5t39.5-60.5 66.5-21q29 0 55.5 10t49.5 33 41 60v242q-31 19-60 25.5t-61 6.5q-26 0-48-8t-40-24-30.5-40-19-56-6.5-73z"/><path transform="translate(25.102 19.992) scale(.014 -.014)" d="m492-7q16 10 32 20t30.5 18.5 28 15.5 23.5 12q16 7 27 0.5t15.5-19.5 1-27-18.5-21q-13-7-29-16.5t-34-20.5-36-22-35-21zm-169-512q-46 0-80.5 17t-53 49-18.5 77q0 33 10 68t31.5 70 53 70 75.5 68q24 15 47 31.5t47 32.5v113q-13-22-30.5-39.5t-38.5-29.5-45.5-18.5-51.5-6.5q-58 0-97 20.5t-58.5 61-19.5 101.5v323q0 13 10.5 19.5t31.5 6.5q22 0 33-6.5t11-19.5v-323q0-35 11-59t33.5-36 55.5-12q28 0 52 9t43.5 24.5 34.5 37.5 25 47v312q0 13 10.5 19.5t32.5 6.5q21 0 32-6.5t11-19.5v-747q0-62-14-111t-39.5-82-62.5-50.5-82-17.5zm5 77q26 0 45.5 12.5t33.5 35.5 21 58 7 81v129q-20-12-39-24.5t-39-25.5q-23-20-41-43.5t-30.5-48.5-19-50.5-6.5-50.5q0-23 7.5-39.5t23-25 37.5-8.5z"/><path transform="translate(34.062 19.992) scale(.014 -.014)" d="m279-17q-39 0-67.5 12t-48 36.5-29 62-9.5 89.5v186q0 42-13 56.5t-36 14.5q-16 0-28-9t-18.5-26-8.5-40q-1-16-9-23.5t-26-7.5q-16 0-26 7t-9 33q2 43 17.5 74.5t43.5 49 64 17.5q35 0 60.5-10t42-31 24.5-52 8-73v-143q0-39 3-67t12-45.5 25.5-26 42.5-8.5q20 0 42 7.5t41 26.5 30.5 52.5 11.5 84.5l29-120q-12-31-29.5-55t-40-40-47.5-24-52-8zm305-2q-40 0-70.5 13t-51.5 39-32 65-11 91v300q0 13 10.5 19.5t31.5 6.5q22 0 33-6.5t11-19.5v-283q0-39 3.5-67t13-45 26.5-25 45-8q19 0 36 4.5t31.5 15 26 27 19.5 40 12.5 55 4.5 71.5q0 81-8.5 125t-22.5 61.5-33 17.5q-18 0-24.5-10.5t-6.5-22.5q0-13 10-26t35.5-21 70.5-8q38 0 72 16t70 39q12 8 22 2t16.5-18 6-24.5-9.5-18.5q-43-30-83.5-46t-93.5-16q-61 0-101 15.5t-59 43-19 62.5q0 27 11 47.5t32 32 51 11.5q53 0 86-34t48.5-93 15.5-135q0-46-6.5-85.5t-19-72-31-57.5-43.5-42.5-56.5-26.5-68.5-9z"/><path transform="translate(46.494 19.992) scale(.014 -.014)" d="m-55-17q-19 0-28.5 11.5t-10 26 8.5 26 28 11.5q31 0 57 24t47 71.5 37 117.5 26 162l60-9q-9-112-27.5-195t-46.5-137.5-65.5-81.5-85.5-27zm515 0q-26 0-45 7t-31 20.5-18 34-6 46.5q0 28 2.5 64t5 74 5 72.5 2.5 59.5q0 39-9.5 53.5t-35.5 14.5q-28 0-64-10t-70-19.5-55-9.5q-18 0-34.5 19.5t-27.5 48-11 55.5q0 18 6 32t17.5 22 29.5 8q33 0 44-23t11-54q0-7 0-14t-1-15q12 0 39 11t62.5 22 71.5 11q40 0 65-15t36.5-46.5 11.5-82.5q0-23-2.5-58.5t-5-75-5-74.5-2.5-58q0-26 7.5-35.5t22.5-9.5q10 0 18 3t15.5 8.5 14.5 10.5q8 6 18 2t17-12q8-10 8.5-20t-4.5-19q-11-15-27.5-26t-36-16.5-39.5-5.5z"/><path transform="translate(54.446 19.992) scale(.014 -.014)" d="m193-17q-52 0-75.5 27t-23.5 76v403q0 13 10.5 19.5t31.5 6.5q22 0 33-6.5t11-19.5v-393q0-20 9-29t22-9q11 0 18.5 3.5t14 8.5 14.5 11q6 5 16.5 1t16.5-12q8-9 9-19t-5-18q-11-16-27.5-27t-36-17-38.5-6zm-55 686q-28 0-42.5 15.5t-14.5 46.5q0 32 14.5 48t42.5 16q27 0 41-16t14-48q1-31-13.5-46.5t-41.5-15.5z"/><path transform="translate(58.646 19.992) scale(.014 -.014)" d="m243-17q-42 0-69.5 15.5t-41 44-13.5 68.5v309h-78q-15 0-21 9t-6 31q0 23 6 31.5t21 8.5h78v204q0 13 10.5 19.5t31.5 6.5q22 0 33-6.5t11-19.5v-204h126q15 0 21.5-8.5t6.5-31.5q0-22-6.5-31t-21.5-9h-126v-299q0-34 9.5-48.5t34.5-14.5q23 0 39.5 11t34.5 27q12 11 22.5 7.5t19.5-12.5q11-10 11.5-20.5t-5.5-19.5q-17-25-38-40t-44-21.5-46-6.5z"/><path transform="translate(64.078 19.992) scale(.014 -.014)" d="m300-17q-40 0-77.5 17t-69 48-55 73.5-36.5 93-13 106.5q0 34 8 64.5t23 55 36 42 47 27 56 9.5q57 0 92.5-23t51.5-60.5 16-80.5q0-34-12.5-70t-34.5-70.5-51-66.5q-43-48-98-85.5t-116.5-58.5-126.5-21q-14 0-21 11.5t-5.5 26 12.5 26 33 11.5q46 0 94.5 18t92.5 48 75 65q22 25 37.5 51.5t23.5 53.5 8 52q0 53-20 73.5t-54 20.5q-17 0-31.5-7.5t-25.5-23-17-37.5-6-51q0-57 16.5-104.5t43.5-81.5 57.5-53 57.5-19q19 0 37 7.5t37.5 22.5 39.5 37q14 16 27 15.5t27-11.5 16.5-23-6.5-26q-25-38-58.5-60.5t-67.5-32-63-9.5z"/><path transform="translate(74.494 19.992) scale(.014 -.014)" d="m187 0q-22 0-33 10t-11 30v930q0 14 11 21t33 7h477q15 0 21.5-8.5t6.5-31.5q0-22-6.5-31t-21.5-9h-433v-350h364q15 0 21-8.5t6-31.5q0-22-6-31t-21-9h-364v-408h433q15 0 21.5-8.5t6.5-31.5q0-22-6.5-31t-21.5-9z"/><path transform="translate(84.798 19.992) scale(.014 -.014)" d="m363-19q-33 0-70.5 6.5t-75.5 21-72 38-59 56.5q-7 11-6.5 20t14.5 23q14 15 23.5 16.5t28.5-15.5q25-24 57-42t72-28.5 88-10.5q57 0 100 12t72 37 44 62.5 15 87.5q0 43-15 73t-42 52.5-64.5 40-82.5 32.5q-39 13-79 29.5t-76 40-63.5 56-44 76-16.5 101.5q0 59 21 105t59.5 78.5 90.5 49 113 16.5q57 0 103.5-15.5t86.5-42 75-58.5q11-10 9-20.5t-13-21.5q-12-13-23.5-18t-22.5 3q-30 26-62.5 46t-70 31-82.5 11-80.5-10.5-60-31-37.5-51.5-13-71q0-49 15.5-83t44.5-58.5 67-41.5 82-32q47-15 95-36t88.5-53 65-79.5 24.5-117.5q0-69-22-121.5t-64-89-102-55-135-18.5z"/></svg>

<?xml version="1.0" encoding="utf-8" ?>
<svg baseProfile="tiny" height="100%" version="1.2" width="100%" xmlns="http://www.w3.org/2000/svg" xmlns:ev="http://www.w3.org/2001/xml-events" xmlns:xlink="http://www.w3.org/1999/xlink"><defs /><g><path d="M187 -14Q143 -14 143 14V970Q143 984 154.5 991.0Q166 998 188 998H400Q509 998 583.0 973.0Q657 948 695.0 893.0Q733 838 733 748Q733 664 702.0 604.0Q671 544 620.0 505.5Q569 467 506.5 444.5Q444 422 380 412Q338 406 300.0 403.0Q262 400 231 400V14Q231 0 220.0 -7.0Q209 -14 187 -14ZM231 479Q252 479 276.5 480.5Q301 482 327.0 484.5Q353 487 380 491Q448 502 508.0 530.5Q568 559 605.5 611.5Q643 664 643 747Q643 809 615.5 846.0Q588 883 533.5 900.5Q479 918 400 918H231Z" transform="translate(0.0, 72) scale(0.072, -0.072)" /><path d="M-57 -17Q-76 -17 -85.0 -5.5Q-94 6 -94.0 20.5Q-94 35 -85.0 46.5Q-76 58 -57 58Q-26 58 3.0 72.5Q32 87 60.5 114.0Q89 141 115.0 179.0Q141 217 164.5 263.5Q188 310 208.5 363.5Q229 417 245.5 475.5Q262 534 273.0 596.0Q284 658 290.0 722.0Q296 786 296 849Q296 864 309.0 871.5Q322 879 339.5 879.0Q357 879 370.0 871.5Q383 864 383 849Q383 787 375.0 721.0Q367 655 353.0 589.0Q339 523 319.0 458.5Q299 394 274.0 334.0Q249 274 219.5 221.0Q190 168 157.5 124.5Q125 81 89.5 49.0Q54 17 17.5 0.0Q-19 -17 -57 -17ZM221 -17Q195 -17 176.0 -10.0Q157 -3 145.5 10.0Q134 23 128.5 42.5Q123 62 123 86V829Q123 925 155.5 972.0Q188 1019 255 1019Q298 1019 326.5 1000.0Q355 981 369.0 943.5Q383 906 383 849Q383 830 370.0 821.0Q357 812 339.5 812.0Q322 812 309.0 821.0Q296 830 296 849Q296 880 291.5 899.5Q287 919 277.5 929.0Q268 939 254 939Q239 939 229.0 929.0Q219 919 214.0 894.5Q209 870 209 829V96Q209 83 213.0 74.5Q217 66 224.0 62.0Q231 58 240 58Q249 58 256.5 61.0Q264 64 271.0 69.5Q278 75 285 80Q293 87 303.0 82.5Q313 78 320 70Q328 60 328.5 50.0Q329 40 324 31Q313 16 296.0 5.0Q279 -6 260.0 -11.5Q241 -17 221 -17Z" transform="translate(55.943999999999996, 72) scale(0.072, -0.072)" /><path d="M258 -17Q201 -17 157.0 10.5Q113 38 88.0 94.0Q63 150 63 235Q63 287 72.5 331.0Q82 375 101.0 410.0Q120 445 147.0 469.0Q174 493 209.0 506.0Q244 519 286 519Q318 519 352.0 508.5Q386 498 416 481V486Q416 501 427.0 508.0Q438 515 460 515Q482 515 492.5 508.5Q503 502 503 488V96Q503 83 507.0 74.5Q511 66 518.0 62.0Q525 58 534 58Q544 58 550.5 60.5Q557 63 563.5 68.0Q570 73 579 80Q586 86 595.0 83.5Q604 81 613 73Q622 63 623.0 52.0Q624 41 619 33Q608 17 591.0 6.0Q574 -5 554.5 -11.0Q535 -17 515 -17Q492 -17 475.0 -12.0Q458 -7 446.0 3.5Q434 14 427.5 29.0Q421 44 418 63Q418 64 417.0 67.5Q416 71 416 75Q393 38 366.5 18.0Q340 -2 312.0 -9.5Q284 -17 258 -17ZM151 239Q151 184 164.0 144.5Q177 105 203.5 84.0Q230 63 270 63Q299 63 325.5 73.0Q352 83 375.0 106.0Q398 129 416 166V408Q385 427 356.0 433.5Q327 440 295 440Q269 440 247.0 432.0Q225 424 207.0 408.0Q189 392 176.5 368.0Q164 344 157.5 312.0Q151 280 151 239Z" transform="translate(84.312, 72) scale(0.072, -0.072)" /><path d="M492 -7Q508 3 524.0 13.0Q540 23 554.5 31.5Q569 40 582.5 47.0Q596 54 606 59Q622 66 633.0 59.5Q644 53 648.5 40.0Q653 27 649.5 13.0Q646 -1 631 -8Q618 -15 602.0 -24.5Q586 -34 568.0 -45.0Q550 -56 532.0 -67.0Q514 -78 497 -88ZM323 -519Q277 -519 242.5 -502.0Q208 -485 189.5 -453.0Q171 -421 171 -376Q171 -343 181.0 -308.0Q191 -273 212.5 -238.0Q234 -203 265.5 -168.0Q297 -133 341 -100Q365 -85 388.0 -68.5Q411 -52 435 -36V77Q422 55 404.5 37.5Q387 20 366.0 8.0Q345 -4 320.5 -10.5Q296 -17 269 -17Q211 -17 172.0 3.5Q133 24 113.5 64.5Q94 105 94 166V489Q94 502 104.5 508.5Q115 515 136 515Q158 515 169.0 508.5Q180 502 180 489V166Q180 131 191.0 107.0Q202 83 224.5 71.0Q247 59 280 59Q308 59 332.0 68.0Q356 77 375.5 92.5Q395 108 410.0 130.0Q425 152 435 177V489Q435 502 445.5 508.5Q456 515 478 515Q499 515 510.0 508.5Q521 502 521 489V-258Q521 -320 507.0 -369.0Q493 -418 467.5 -451.0Q442 -484 405.0 -501.5Q368 -519 323 -519ZM328 -442Q354 -442 373.5 -429.5Q393 -417 407.0 -394.0Q421 -371 428.0 -336.0Q435 -301 435 -255V-126Q415 -138 396.0 -150.5Q377 -163 357 -176Q334 -196 316.0 -219.5Q298 -243 285.5 -268.0Q273 -293 266.5 -318.5Q260 -344 260 -369Q260 -392 267.5 -408.5Q275 -425 290.5 -433.5Q306 -442 328 -442Z" transform="translate(129.096, 72) scale(0.072, -0.072)" /><path d="M279 -17Q240 -17 211.5 -5.0Q183 7 163.5 31.5Q144 56 134.5 93.5Q125 131 125 183V369Q125 411 112.0 425.5Q99 440 76 440Q60 440 48.0 431.0Q36 422 29.5 405.0Q23 388 21 365Q20 349 12.0 341.5Q4 334 -14 334Q-30 334 -40.0 341.0Q-50 348 -49 374Q-47 417 -31.5 448.5Q-16 480 12.0 497.5Q40 515 76 515Q111 515 136.5 505.0Q162 495 178.5 474.0Q195 453 203.0 422.0Q211 391 211 349V206Q211 167 214.0 139.0Q217 111 226.0 93.5Q235 76 251.5 67.5Q268 59 294 59Q314 59 336.0 66.5Q358 74 377.0 93.0Q396 112 407.5 145.5Q419 179 419 230L448 110Q436 79 418.5 55.0Q401 31 378.5 15.0Q356 -1 331.0 -9.0Q306 -17 279 -17ZM584 -19Q544 -19 513.5 -6.0Q483 7 462.0 33.0Q441 59 430.0 98.0Q419 137 419 189V489Q419 502 429.5 508.5Q440 515 461 515Q483 515 494.0 508.5Q505 502 505 489V206Q505 167 508.5 139.0Q512 111 521.5 94.0Q531 77 548.0 69.0Q565 61 593 61Q612 61 629.0 65.5Q646 70 660.5 80.5Q675 91 686.5 107.5Q698 124 706.0 147.5Q714 171 718.5 202.5Q723 234 723 274Q723 355 714.5 399.0Q706 443 692.0 460.5Q678 478 659 478Q641 478 634.5 467.5Q628 457 628 445Q628 432 638.0 419.0Q648 406 673.5 398.0Q699 390 744 390Q782 390 816.0 406.0Q850 422 886 445Q898 453 908.0 447.0Q918 441 924.5 429.0Q931 417 930.5 404.5Q930 392 921 386Q878 356 837.5 340.0Q797 324 744 324Q683 324 643.0 339.5Q603 355 584.0 382.5Q565 410 565 445Q565 472 576.0 492.5Q587 513 608.0 524.5Q629 536 659 536Q712 536 745.0 502.0Q778 468 793.5 409.0Q809 350 809 274Q809 228 802.5 188.5Q796 149 783.5 116.5Q771 84 752.5 59.0Q734 34 709.0 16.5Q684 -1 652.5 -10.0Q621 -19 584 -19Z" transform="translate(175.176, 72) scale(0.072, -0.072)" /><path d="M-55 -17Q-74 -17 -83.5 -5.5Q-93 6 -93.5 20.5Q-94 35 -85.0 46.5Q-76 58 -57 58Q-26 58 0.0 82.0Q26 106 47.0 153.5Q68 201 84.0 271.0Q100 341 110 433L170 424Q161 312 142.5 229.0Q124 146 96.0 91.5Q68 37 30.5 10.0Q-7 -17 -55 -17ZM460 -17Q434 -17 415.0 -10.0Q396 -3 384.0 10.5Q372 24 366.0 44.5Q360 65 360 91Q360 119 362.5 155.0Q365 191 367.5 229.0Q370 267 372.5 301.5Q375 336 375 361Q375 400 365.5 414.5Q356 429 330 429Q302 429 266.0 419.0Q230 409 196.0 399.5Q162 390 141 390Q123 390 106.5 409.5Q90 429 79.0 457.5Q68 486 68 513Q68 531 74.0 545.0Q80 559 91.5 567.0Q103 575 121 575Q154 575 165.0 552.0Q176 529 176 498Q176 491 176.0 484.0Q176 477 175 469Q187 469 214.0 480.0Q241 491 276.5 502.0Q312 513 348 513Q388 513 413.0 498.0Q438 483 449.5 451.5Q461 420 461 369Q461 346 458.5 310.5Q456 275 453.5 235.5Q451 196 448.5 161.0Q446 126 446 103Q446 77 453.5 67.5Q461 58 476 58Q486 58 494.0 61.0Q502 64 509.5 69.5Q517 75 524 80Q532 86 542.0 82.0Q552 78 559 70Q567 60 567.5 50.0Q568 40 563 31Q552 16 535.5 5.0Q519 -6 499.5 -11.5Q480 -17 460 -17Z" transform="translate(239.11199999999997, 72) scale(0.072, -0.072)" /><path d="M193 -17Q141 -17 117.5 10.0Q94 37 94 86V489Q94 502 104.5 508.5Q115 515 136 515Q158 515 169.0 508.5Q180 502 180 489V96Q180 76 189.0 67.0Q198 58 211 58Q222 58 229.5 61.5Q237 65 243.5 70.0Q250 75 258 81Q264 86 274.5 82.0Q285 78 291 70Q299 61 300.0 51.0Q301 41 295 33Q284 17 267.5 6.0Q251 -5 231.5 -11.0Q212 -17 193 -17ZM138 669Q110 669 95.5 684.5Q81 700 81 731Q81 763 95.5 779.0Q110 795 138 795Q165 795 179.0 779.0Q193 763 193 731Q194 700 179.5 684.5Q165 669 138 669Z" transform="translate(280.008, 72) scale(0.072, -0.072)" /><path d="M243 -17Q201 -17 173.5 -1.5Q146 14 132.5 42.5Q119 71 119 111V420H41Q26 420 20.0 429.0Q14 438 14 460Q14 483 20.0 491.5Q26 500 41 500H119V704Q119 717 129.5 723.5Q140 730 161 730Q183 730 194.0 723.5Q205 717 205 704V500H331Q346 500 352.5 491.5Q359 483 359 460Q359 438 352.5 429.0Q346 420 331 420H205V121Q205 87 214.5 72.5Q224 58 249 58Q272 58 288.5 69.0Q305 80 323 96Q335 107 345.5 103.5Q356 100 365 91Q376 81 376.5 70.5Q377 60 371 51Q354 26 333.0 11.0Q312 -4 289.0 -10.5Q266 -17 243 -17Z" transform="translate(301.608, 72) scale(0.072, -0.072)" /><path d="M300 -17Q260 -17 222.5 0.0Q185 17 153.5 48.0Q122 79 98.5 121.5Q75 164 62.0 214.5Q49 265 49 321Q49 355 57.0 385.5Q65 416 80.0 440.5Q95 465 116.0 482.5Q137 500 163.0 509.5Q189 519 219 519Q276 519 311.5 496.0Q347 473 363.0 435.5Q379 398 379 355Q379 321 366.5 285.0Q354 249 332.0 214.5Q310 180 281 148Q238 100 183.0 62.5Q128 25 66.5 4.0Q5 -17 -60 -17Q-74 -17 -81.0 -5.5Q-88 6 -86.5 20.5Q-85 35 -74.0 46.5Q-63 58 -41 58Q5 58 53.5 76.0Q102 94 146.0 124.0Q190 154 221 189Q243 214 258.5 240.5Q274 267 282.0 294.0Q290 321 290 346Q290 399 270.0 419.5Q250 440 216 440Q199 440 184.5 432.5Q170 425 159.0 409.5Q148 394 142.0 372.0Q136 350 136 321Q136 264 152.5 216.5Q169 169 196.0 135.0Q223 101 253.5 82.0Q284 63 311 63Q330 63 348.0 70.5Q366 78 385.5 93.0Q405 108 425 130Q439 146 452.0 145.5Q465 145 479 134Q493 123 495.5 111.0Q498 99 489 85Q464 47 430.5 24.5Q397 2 363.0 -7.5Q329 -17 300 -17Z" transform="translate(329.544, 72) scale(0.072, -0.072)" /><path d="M187 0Q165 0 154.0 10.0Q143 20 143 40V970Q143 984 154.0 991.0Q165 998 187 998H664Q679 998 685.5 989.5Q692 981 692 958Q692 936 685.5 927.0Q679 918 664 918H231V568H595Q610 568 616.0 559.5Q622 551 622 528Q622 506 616.0 497.0Q610 488 595 488H231V80H664Q679 80 685.5 71.5Q692 63 692 40Q692 18 685.5 9.0Q679 0 664 0Z" transform="translate(383.112, 72) scale(0.072, -0.072)" /><path d="M363 -19Q330 -19 292.5 -12.5Q255 -6 217.0 8.5Q179 23 145.0 46.5Q111 70 86 103Q79 114 79.5 123.0Q80 132 94 146Q108 161 117.5 162.5Q127 164 146 147Q171 123 203.0 105.0Q235 87 275.0 76.5Q315 66 363 66Q420 66 463.0 78.0Q506 90 535.0 115.0Q564 140 579.0 177.5Q594 215 594 265Q594 308 579.0 338.0Q564 368 537.0 390.5Q510 413 472.5 430.5Q435 448 390 463Q351 476 311.0 492.5Q271 509 235.0 532.5Q199 556 171.5 588.5Q144 621 127.5 664.5Q111 708 111 766Q111 825 132.0 871.0Q153 917 191.5 949.5Q230 982 282.0 998.5Q334 1015 395 1015Q452 1015 498.5 999.5Q545 984 585.0 957.5Q625 931 660 899Q671 889 669.0 878.5Q667 868 656 857Q644 844 632.5 839.0Q621 834 610 842Q580 868 547.5 888.0Q515 908 477.5 919.0Q440 930 395 930Q350 930 314.5 919.5Q279 909 254.5 888.5Q230 868 217.0 837.0Q204 806 204 766Q204 717 219.5 683.0Q235 649 264.0 624.5Q293 600 331.0 583.0Q369 566 413 551Q460 536 508.0 515.0Q556 494 596.5 462.0Q637 430 661.5 382.5Q686 335 686 265Q686 196 664.0 143.5Q642 91 600.0 54.5Q558 18 498.0 -0.5Q438 -19 363 -19Z" transform="translate(436.10400000000004, 72) scale(0.072, -0.072)" /></g></svg>
